X:1
T:Title
%%score { 1 | ( 2 3 ) }
L:1/8
Q:1/4=100
M:4/4
K:F
V:1 treble nm="Grand Piano"
V:2 bass 
V:3 bass 
V:1
 A2 A>A A2 F2 | c2 [Ec]2 c2 A2 | d2 c>c c2 A2 | [EG]6 [EG]2 | A2 A>A A2 F2 | c2 [Ec]2 c2 A>A | %6
w: J.~WEsley~Hughes * * * *||||||
 [B,DG]2 [DGB]2 [CFA]2 [B,EG]2 | [A,F]6 z2 | [DFB]2 [DFB]>[DFB] [DFB]2 [Fd]2 | d3 c c2 A>A | %10
w: ||||
 c2 c2 d2 c>A | [EG]6 C2 | F2 F2 F2 [EG]>[EG] | [FA]2 [Fd]2 [Fc]>[CFA] [=B,F]>[B,FG] | %14
w: ||||
 [CFA]2 [CFA]2 [B,EG]2 [B,CG]2 | [F,A,CF]6 z2 |] %16
w: ||
V:2
 [F,CF]2 [F,CF]>[F,CF] [F,CF]2 [F,A,]2 | [F,A,F]2 [C,G,]2[K:treble] [F,A,F]2 [F,CF]2 | %2
 [B,F]2 F>F[K:bass] [F,A,F]2 [F,CF]2 | [C,C]6 [C,C]2 | [F,CF]2 [F,CF]>[F,CF] [F,CF]2 [F,A,]2 | %5
 [F,A,F]2 [C,G,]2[K:treble] [F,A,F]2 F>F | B,,2 B,,2 C,2 C,2 | F,6 z2 | %8
 B,,2 B,,>B,, B,,2 [B,,B,]2 | [F,B,F]3 [F,A,F] [F,A,F]2 [F,CF]>[F,CF] | %10
 [F,A,F]2 [F,A,F]2 [B,F]2 [A,CF]>[K:bass][F,CF] | [C,C]6 [E,B,]2 | %12
 [F,A,C]2 [F,B,D]2 [F,A,C]2 [C,C]>[C,C] | [F,C]2 [B,,B,]2 [C,A,]>C, D,>D, | C,2 C,2 C,2 C,2 | %15
 F,,6 z2 |] %16
V:3
 x8 | x4[K:treble] x4 | z2 [A,C]2[K:bass] z4 | x8 | x8 | z4[K:treble] z2 [F,C]2 | x8 | x8 | x8 | %9
 x8 | x15/2[K:bass] x/ | x8 | x8 | x8 | x8 | x8 |] %16

